lib/brands/icons/shazam.svg

<svg xmlns="http://www.w3.org/2000/svg" fill="none" aria-hidden="true" viewBox="0 0 48 48"><g id="shazam-Icon"><path id="bg" fill="url(#paint0_linear_94_20628)" d="M3 23.997C3 35.5932 12.4033 44.9973 24.0008 44.9973C35.5982 44.9973 45 35.5932 45 23.997C45 12.3978 35.5982 2.99731 24.0008 2.99731C12.4033 2.99731 3 12.3978 3 23.997Z"/><path id="shazam" fill="white" fill-rule="evenodd" d="M29.4691 37.6878C30.0197 37.1576 33.251 34.0459 35.1095 31.9963C36.8809 30.0376 37.7717 27.5174 37.6117 24.904C37.4473 22.2126 36.1912 19.7201 34.0722 17.8897C30.5727 14.8639 24.9166 14.9254 21.464 18.024C20.2045 19.1526 18.7819 20.7007 18.7212 20.767C17.8134 21.7543 17.8804 23.2914 18.8659 24.1988C19.853 25.1047 21.3856 25.0404 22.2959 24.0542C22.3081 24.0396 23.6203 22.6117 24.7028 21.6423C26.5205 20.0105 29.4276 20.2933 30.8995 21.5659C32.0207 22.5336 32.6831 23.8237 32.7672 25.1982C32.8463 26.4953 32.4001 27.7523 31.5134 28.7315C29.7618 30.6671 26.5373 33.77 26.0917 34.1987C26.0603 34.229 26.0428 34.2459 26.0404 34.2483C25.0721 35.1759 25.0368 36.7107 25.9639 37.6819C26.4405 38.1799 27.077 38.4321 27.7186 38.4321C28.3203 38.4321 28.9241 38.2082 29.3931 37.7609C29.4034 37.751 29.4292 37.7261 29.4691 37.6878ZM14.2246 29.9365C15.9469 31.4259 18.1903 32.1693 20.4368 32.1693C22.7569 32.1693 25.0798 31.3774 26.8327 29.8027C27.9875 28.7655 29.2825 27.3769 29.534 27.1071C29.5566 27.083 29.5708 27.0678 29.5756 27.0626C30.4831 26.0754 30.4173 24.5372 29.431 23.6308C28.4458 22.7221 26.9095 22.7854 26.0028 23.7737C26.0024 23.7742 26.0001 23.7767 25.9961 23.781C25.8926 23.8928 24.6362 25.2506 23.5948 26.1871C21.7761 27.8158 18.8701 27.5371 17.3964 26.2618C16.2765 25.2932 15.6141 24.0028 15.5292 22.6272C15.4502 21.3314 15.8971 20.0774 16.7838 19.0943C18.6601 17.0238 22.2203 13.6146 22.2568 13.5799C23.2256 12.6533 23.2585 11.1164 22.3335 10.1462C21.4062 9.17736 19.8715 9.14029 18.9033 10.0682L18.8873 10.0834C18.588 10.3707 15.1341 13.6839 13.1892 15.8328C11.4151 17.7904 10.5279 20.3104 10.6847 22.9228C10.8504 25.6156 12.1065 28.1064 14.2246 29.9365Z" clip-rule="evenodd"/></g><defs><linearGradient id="paint0_linear_94_20628" x1="3" x2="3" y1="44.9973" y2="2.99731" gradientUnits="userSpaceOnUse"><stop stop-color="#2255FF"/><stop offset="1" stop-color="#00AAFF"/></linearGradient></defs></svg>

<svg xmlns="http://www.w3.org/2000/svg" fill="none" aria-hidden="true" viewBox="0 0 48 48"><path fill="url(#a)" d="M3 23.997c0 11.596 9.403 21 21 21 11.598 0 21-9.404 21-21 0-11.6-9.402-21-21-21-11.597 0-21 9.4-21 21Z"/><path fill="#fff" fill-rule="evenodd" d="M29.47 37.688c.55-.53 3.781-3.642 5.64-5.692 1.77-1.958 2.662-4.479 2.502-7.092-.165-2.691-1.42-5.184-3.54-7.014-3.5-3.026-9.155-2.965-12.608.134-1.26 1.129-2.682 2.677-2.743 2.743a2.43 2.43 0 0 0 .145 3.432 2.43 2.43 0 0 0 3.43-.145c.012-.014 1.324-1.442 2.407-2.412 1.817-1.631 4.725-1.349 6.197-.076 1.12.968 1.783 2.258 1.867 3.632a4.8 4.8 0 0 1-1.254 3.534c-1.751 1.935-4.976 5.038-5.421 5.467l-.052.05a2.43 2.43 0 0 0 1.679 4.183c.601 0 1.205-.224 1.674-.671l.076-.073Zm-15.245-7.752c1.722 1.49 3.965 2.233 6.212 2.233 2.32 0 4.643-.792 6.396-2.366 1.155-1.038 2.45-2.426 2.701-2.696l.042-.044a2.43 2.43 0 0 0-.145-3.432 2.423 2.423 0 0 0-3.435.15c-.103.112-1.36 1.47-2.401 2.406-1.819 1.629-4.725 1.35-6.199.075-1.12-.969-1.782-2.26-1.867-3.635a4.808 4.808 0 0 1 1.255-3.533c1.876-2.07 5.436-5.48 5.473-5.514a2.43 2.43 0 0 0 .076-3.434 2.424 2.424 0 0 0-3.43-.078l-.016.015c-.299.288-3.753 3.6-5.698 5.75a9.627 9.627 0 0 0-2.504 7.09c.165 2.693 1.421 5.183 3.54 7.014Z" clip-rule="evenodd"/><defs><linearGradient id="a" x1="3" x2="3" y1="44.997" y2="2.997" gradientUnits="userSpaceOnUse"><stop stop-color="#25F"/><stop offset="1" stop-color="#0AF"/></linearGradient></defs></svg>
